packages/core/src/svgs/tokens/branded/BEAM.svg

<svg width="24" height="24" viewBox="0 0 24 24" fill="none" xmlns="http://www.w3.org/2000/svg">
<path d="M11.9998 16.5H16.1499L11.9998 9.49998V4.99994L20.4999 19.0001H11.9998V16.5Z" fill="#0B76FF"/>
<path d="M12 16.5H7.83003L12 9.49998V4.99994L3.5 19.0001H12V16.5Z" fill="#24C1FF"/>
<path d="M12 11.4999V15.5H9.5L12 11.4999Z" fill="#39FFF2"/>
<path d="M11.9998 11.4999V15.5H14.4998L11.9998 11.4999Z" fill="#00E2C2"/>
<path d="M2 9.38L11.9901 14V14.4851L2 12.3V9.38Z" fill="url(#paint0_linear_364_5062)"/>
<path d="M22.0001 8.03491L11.99 14.0049V14.17L22.0001 9.96493V8.03491Z" fill="url(#paint1_linear_364_5062)"/>
<path d="M22.0001 13.82L11.99 14.49V14.33L22.0001 11.89V13.82Z" fill="url(#paint2_linear_364_5062)"/>
<path d="M22.0001 9.96497L11.99 14.165V14.33L22.0001 11.89V9.96497Z" fill="url(#paint3_linear_364_5062)"/>
<defs>
<linearGradient id="paint0_linear_364_5062" x1="2.01001" y1="12.0343" x2="12.961" y2="12.0343" gradientUnits="userSpaceOnUse">
<stop stop-color="white" stop-opacity="0"/>
<stop offset="1" stop-color="white"/>
</linearGradient>
<linearGradient id="paint1_linear_364_5062" x1="21.8801" y1="11.9714" x2="9.16277" y2="11.9714" gradientUnits="userSpaceOnUse">
<stop stop-color="#FD76FD" stop-opacity="0"/>
<stop offset="1" stop-color="#FF51FF"/>
</linearGradient>
<linearGradient id="paint2_linear_364_5062" x1="22.0899" y1="12.0269" x2="11.7901" y2="12.0269" gradientUnits="userSpaceOnUse">
<stop stop-color="#9D6EFF" stop-opacity="0"/>
<stop offset="1" stop-color="#A18CFF"/>
</linearGradient>
<linearGradient id="paint3_linear_364_5062" x1="21.99" y1="12.155" x2="16.1" y2="12.155" gradientUnits="userSpaceOnUse">
<stop stop-color="#AE60D6" stop-opacity="0"/>
<stop offset="1" stop-color="#AB38E6"/>
</linearGradient>
</defs>
</svg>

<svg xmlns="http://www.w3.org/2000/svg" width="24" height="24" fill="none" viewBox="0 0 24 24">
    <path fill="#0B76FF" d="M12 16.5h4.15L12 9.5V5l8.5 14H12z"/>
    <path fill="#24C1FF" d="M12 16.5H7.83l4.17-7V5L3.5 19H12z"/>
    <path fill="#39FFF2" d="M12 11.5v4H9.5z"/>
    <path fill="#00E2C2" d="M12 11.5v4h2.5z"/>
    <path fill="url(#BEAM__a)" d="M2 9.38 11.99 14v.485L2 12.3z"/>
    <path fill="url(#BEAM__b)" d="m22 8.035-10.01 5.97v.165L22 9.965z"/>
    <path fill="url(#BEAM__c)" d="m22 13.82-10.01.67v-.16L22 11.89z"/>
    <path fill="url(#BEAM__d)" d="m22 9.965-10.01 4.2v.165L22 11.89z"/>
    <defs>
        <linearGradient id="BEAM__a" x1="2.01" x2="12.961" y1="12.034" y2="12.034" gradientUnits="userSpaceOnUse">
            <stop stop-color="#fff" stop-opacity="0"/>
            <stop offset="1" stop-color="#fff"/>
        </linearGradient>
        <linearGradient id="BEAM__b" x1="21.88" x2="9.163" y1="11.971" y2="11.971" gradientUnits="userSpaceOnUse">
            <stop stop-color="#FD76FD" stop-opacity="0"/>
            <stop offset="1" stop-color="#FF51FF"/>
        </linearGradient>
        <linearGradient id="BEAM__c" x1="22.09" x2="11.79" y1="12.027" y2="12.027" gradientUnits="userSpaceOnUse">
            <stop stop-color="#9D6EFF" stop-opacity="0"/>
            <stop offset="1" stop-color="#A18CFF"/>
        </linearGradient>
        <linearGradient id="BEAM__d" x1="21.99" x2="16.1" y1="12.155" y2="12.155" gradientUnits="userSpaceOnUse">
            <stop stop-color="#AE60D6" stop-opacity="0"/>
            <stop offset="1" stop-color="#AB38E6"/>
        </linearGradient>
    </defs>
</svg>
